X:103
%%etbk:tnset id:36,pos:3,rep:3x,ant:
%%etbk:wsite http://www.thesession.org/tunes/display/176
%%etbk:video src:ytube,cde:5_wkF6TO4h0,desc:second tune
%%etbk:color #ffff99
%%etbk:pldat 2016-04-23T16:59,2016-04-20T16:39,2015-08-24T19:05,2015-02-06T18:05,2015-01-31T17:04,2014-05-20T17:20,2014-04-01T17:48,2014-03-22T16:12,2014-02-18T17:05,2014-02-14T17:19,2014-02-09T13:04,2013-12-09T18:56,2013-11-06T17:36,2013-10-23T18:51,2013-10-21T17:54,2013-10-20T14:05,2013-09-12T18:12,2013-08-29T16:00,2013-08-26T18:13,2013-05-20T15:25,2013-05-05T14:08,2013-05-01T16:11
T: Sandmount
T: Mick Hand's
Z: Piano Box Version by Martin Fleischmann
H: Created 2013-02-19 /  Last Modified 2016-04-20
M: 4/4
L: 1/8
R: reel
K: Ador
|:"am"!5!e!1!A!2!A!1!G !2!ABAG | "G"!2!E!3!G!1!D!3!G !2!E!3!G!1!D!3!G | "am"!1!E!4!A!2!A!1!G !2!A2 !3!(3Bc!4!d |1 "em"!2!e!4!g!3!f!5!a !4!ged!2!B:|2 "em"!2!e!4!g!3!f!5!a !4!ged!4!g|
"am"!2!e!4!aag !4!a2!5!b!4!a | "G"!3!gede !3!ged!3!g | "am"!2!e!4!aag !4!aaga | "em"!5!bagb !4!aaag |
"am"!2!e!4!aag !4!a2!5!b!4!a | "G"!3!ge!1!d!2!B !1!de!3!g!4!a | !5!bg!4!af !4!gfed | !2!eeed !2!!5!e4 ||
| "alt""G"!3!ge!1!d!5!b !1!de!3!g!4!a |


